demo/assets/images/line.svg

<svg width="236" height="16" viewBox="0 0 236 16" fill="none" xmlns="http://www.w3.org/2000/svg">
<path d="M235.992 2.34107C234.831 2.2122 233.68 2.2444 232.508 2.22292C231.357 2.21218 230.196 2.14774 229.044 2.04035C226.482 1.78262 223.909 1.52491 221.346 1.28866C216.4 0.826895 211.454 0.472514 206.498 0.279217C201.953 0.096659 197.408 0 192.853 0C191.671 0 190.5 0.0107597 189.319 0.0214984C184.813 0.075192 180.298 0.139603 175.793 0.268468C165.251 0.579891 154.709 0.891322 144.177 1.41752C133.885 1.93298 123.593 2.4914 113.311 3.16794C108.255 3.50084 103.199 3.81226 98.1433 4.17738C92.677 4.57471 87.2107 4.91833 81.7544 5.36936C70.4914 6.29289 59.2184 7.22716 47.9554 8.16143C38.1741 8.97758 28.4329 10.2018 18.7316 11.7374C12.4644 12.7361 6.21718 13.8959 0 15.1631V15.1738C7.14825 15.6678 14.3065 15.9255 21.4748 15.99C26.1602 16.0329 30.8456 15.9363 35.531 15.7322C38.5545 15.6034 41.578 15.4208 44.5915 15.1953C46.4436 15.0557 48.2958 14.8409 50.1479 14.6583C55.1036 14.1536 60.0594 13.6382 65.0151 13.1442C70.6816 12.5751 76.3482 11.9522 82.0247 11.4475C87.8715 10.9213 93.7182 10.3844 99.575 9.85817C104.831 9.38567 110.097 8.99906 115.353 8.56951C120.489 8.1507 125.625 7.83927 130.761 7.48489C135.937 7.13051 141.113 6.86206 146.299 6.56137C151.565 6.26069 156.851 6.0996 162.117 5.88483C171.748 5.4875 181.389 5.35865 191.031 5.29421C196.387 5.262 201.753 5.04722 207.109 4.85392C212.385 4.66063 217.671 4.40287 222.947 4.05923C225.09 3.91963 227.252 3.82298 229.385 3.58673C230.426 3.47934 231.457 3.33974 232.478 3.11422C233.379 2.91019 234.271 2.63099 235.182 2.44843C235.452 2.40547 235.722 2.37328 235.992 2.34107C236.003 2.3518 236.003 2.34107 235.992 2.34107Z" fill="#F9725F"/>
</svg>

<svg xmlns="http://www.w3.org/2000/svg" width="236" height="16" fill="none"><path fill="#F9725F" d="M235.992 2.341c-1.161-.129-2.312-.097-3.484-.118a42 42 0 0 1-3.464-.183 929 929 0 0 0-7.698-.751C216.4.827 211.454.473 206.498.279 201.953.097 197.408 0 192.853 0c-1.182 0-2.353.01-3.534.021-4.506.054-9.021.119-13.526.247-10.542.312-21.084.623-31.616 1.15-10.292.515-20.584 1.073-30.866 1.75-5.056.333-10.112.644-15.168 1.01-5.466.397-10.932.74-16.389 1.191-11.263.924-22.536 1.858-33.799 2.792-9.78.817-19.522 2.04-29.223 3.576A443 443 0 0 0 0 15.163v.01c7.148.495 14.307.752 21.475.817 4.685.043 9.37-.054 14.056-.258 3.023-.129 6.047-.311 9.06-.537 1.853-.14 3.705-.354 5.557-.537 4.956-.504 9.911-1.02 14.867-1.514 5.667-.569 11.333-1.192 17.01-1.697 5.846-.526 11.693-1.063 17.55-1.589 5.256-.472 10.522-.859 15.778-1.288 5.136-.42 10.272-.73 15.408-1.085 5.176-.354 10.352-.623 15.538-.924 5.266-.3 10.552-.461 15.818-.676 9.631-.397 19.272-.526 28.914-.59 5.356-.033 10.722-.248 16.078-.441a558 558 0 0 0 15.838-.795c2.143-.14 4.305-.236 6.438-.472 1.041-.108 2.072-.247 3.093-.473.901-.204 1.793-.483 2.704-.666.27-.043.54-.075.81-.107.011.01.011 0 0 0"/></svg>
